svgs/duotone/meter.svg

<svg xmlns="http://www.w3.org/2000/svg" viewBox="0 0 512 512"><!--! Font Awesome Pro 6.4.0 by @fontawesome - https://fontawesome.com License - https://fontawesome.com/license (Commercial License) Copyright 2023 Fonticons, Inc. --><defs><style>.fa-secondary{opacity:.4}</style></defs><path class="fa-primary" d="M160 128c17.7 0 32 14.3 32 32v32c0 17.7-14.3 32-32 32s-32-14.3-32-32V160c0-17.7 14.3-32 32-32zm96 0c17.7 0 32 14.3 32 32v32c0 17.7-14.3 32-32 32s-32-14.3-32-32V160c0-17.7 14.3-32 32-32zm96 0c17.7 0 32 14.3 32 32v32c0 17.7-14.3 32-32 32s-32-14.3-32-32V160c0-17.7 14.3-32 32-32z"/><path class="fa-secondary" d="M256 512A256 256 0 1 0 256 0a256 256 0 1 0 0 512zM192 160v32c0 17.7-14.3 32-32 32s-32-14.3-32-32V160c0-17.7 14.3-32 32-32s32 14.3 32 32zm96 0v32c0 17.7-14.3 32-32 32s-32-14.3-32-32V160c0-17.7 14.3-32 32-32s32 14.3 32 32zm96 0v32c0 17.7-14.3 32-32 32s-32-14.3-32-32V160c0-17.7 14.3-32 32-32s32 14.3 32 32z"/></svg>

<svg xmlns="http://www.w3.org/2000/svg" viewBox="0 0 512 512"><!--! Font Awesome Pro 6.3.0 by @fontawesome - https://fontawesome.com License - https://fontawesome.com/license (Commercial License) Copyright 2023 Fonticons, Inc. --><defs><style>.fa-secondary{opacity:.4}</style></defs><path class="fa-primary" d="M160 128C177.7 128 192 142.3 192 160V192C192 209.7 177.7 224 160 224C142.3 224 128 209.7 128 192V160C128 142.3 142.3 128 160 128zM256 128C273.7 128 288 142.3 288 160V192C288 209.7 273.7 224 256 224C238.3 224 224 209.7 224 192V160C224 142.3 238.3 128 256 128zM352 128C369.7 128 384 142.3 384 160V192C384 209.7 369.7 224 352 224C334.3 224 320 209.7 320 192V160C320 142.3 334.3 128 352 128z"/><path class="fa-secondary" d="M0 256C0 114.6 114.6 0 256 0C397.4 0 512 114.6 512 256C512 397.4 397.4 512 256 512C114.6 512 0 397.4 0 256zM192 160C192 142.3 177.7 128 160 128C142.3 128 128 142.3 128 160V192C128 209.7 142.3 224 160 224C177.7 224 192 209.7 192 192V160zM288 160C288 142.3 273.7 128 256 128C238.3 128 224 142.3 224 160V192C224 209.7 238.3 224 256 224C273.7 224 288 209.7 288 192V160zM384 160C384 142.3 369.7 128 352 128C334.3 128 320 142.3 320 160V192C320 209.7 334.3 224 352 224C369.7 224 384 209.7 384 192V160z"/></svg>
